X: 3
T: Huntington  v.2
P: piffero secondo a0072
C: Dan Moylan
%R: march
S: http://ancients.sudburymuster.org/mus/med/pdf/crownpthC0.pdf
Z: 2020 John Chambers <jc:trillian.mit.edu>
M: 2/4
L: 1/16
K: D
z2 |\
F2A,2 F2A,2 | GFE2 GFE2 | G2B,2 G2B,2 | FGFD F2A,2 |\
D2A,2 D2A,2 | EFG2 FED2 | G2B,2 G2B,2 | EFGA F2 :|
|: z2 |\
F2A,2 E2A,2 | D2A,2 E2A,2 | F2A,2 G2A,2 | A2A,2 G2A,2 |\
F2A,2 E2A,2 | D2A,2 C2A,2 | F2A,2 B,2C2 | D2E2 F2 :|
|: z2 |\
F2D2 A2F2 | GAB2- B4 | F2D2 A2F2 | EAG2- G4 |\
F2A2 A2F2 | GFGA B2B2 | ABAF | GAGE | F4 z2 :|

% %sep 1 1 200
% %center - - - - - - - - - -
% Whatever we want at the bottom of each set belongs here.
